X: 9950
T: Deveron, The
R: polka
M: 2/4
K: Dmajor
DD F/E/D/F/|AA B/A/F/A/|dd f/e/d/e/|fe eA|
DD F/E/D/F/|AA B/A/F/A/|df e/f/g/a/|fd d>A:|
ff d/e/f/d/|eA A>A|BB G/A/B/G/|AD D>D|
GG E/F/G/E/|FA d>A|B/A/G/F/ E/F/G/A/|FD D>A|
ff d/e/f/d/|eA A>A|BB G/A/B/G/|AD D>D|
GG E/F/G/E/|FA d>a|b/a/g/f/ e/f/g/a/|fd d2||

